svg/furkot/freepik/music.svg

<svg viewBox="0 0 512 512" xmlns="http://www.w3.org/2000/svg"><path d="m242.226 507.858c-.015 0-.029.001-.044.001h.133c-.029 0-.059-.001-.089-.001zm165.108-492.031c-21.111-21.11-55.47-21.101-76.592.021l-13.791 13.789-4.955-4.955c-7.214-7.214-18.91-7.214-26.124 0s-7.214 18.91 0 26.124l25.821 25.821c5.39 5.39 14.13 5.39 19.522 0l30.154-30.154c4.258-4.259 11.157-4.288 15.379-.065 4.222 4.222 4.192 11.121-.066 15.379 0 0-17.611 17.169-20.344 19.903l-42.992 39.828-7.058-7.057c-7.276-7.277-19.128-7.946-26.737-1.02-8.125 7.394-8.347 19.984-.669 27.662l7.439 7.439-12.611 12.612-7.058-7.058c-7.276-7.276-19.129-7.946-26.737-1.02-8.125 7.394-8.348 19.984-.67 27.662l7.44 7.44-13.513 13.512-7.057-7.058c-7.277-7.276-19.129-7.945-26.738-1.02-8.124 7.395-8.347 19.984-.669 27.662l7.44 7.44-12.612 12.611-7.058-7.057c-7.276-7.277-19.128-7.946-26.737-1.02-8.125 7.394-8.347 19.984-.669 27.662l7.439 7.439-56.49 56.49c-43.011 43.011-42.809 112.918.157 155.958 43.037 43 112.66 42.907 155.684-.116l1.869-1.869c24.605-24.605 56.546-39.668 90.262-43.726 5.662 2.915 10.632 5.508 15.158 7.899-7.745-45.751-19.153-112.863-25.6-150.866-4.068 1.209-8.149 2.443-12.146 3.808-1.102.248-2.262.454-3.426.688l.055.4c-51.936 18.287-99.278 47.952-138.456 86.986-7.833 7.805-20.902 8.207-28.612.282-7.515-7.726-7.492-20.042.152-27.688l232.952-253.255 9.246-10.922c21.118-21.124 21.127-55.482.018-76.591z"/><path d="m434.805 431.899-23.327-136.804c-2.139-12.459-14.414-21.053-26.218-18.258l.003-.003c-4.001.398-7.342 1.97-11.141 3.93.719 1.811 1.179 3.626 1.518 5.6l29.448 171.266c3.959 1.058 7.883.746 11.131.392l.052.051c12.365-2.045 20.672-13.715 18.534-26.174z"/></svg>

<svg xmlns="http://www.w3.org/2000/svg" viewBox="0 0 512 512"><path d="M242.226 507.858C242.211 507.858 242.197 507.859 242.182 507.859H242.315C242.286 507.859 242.256 507.858 242.226 507.858ZM407.334 15.827C386.223-5.283 351.864-5.274 330.742 15.848L316.951 29.637 311.996 24.682C304.782 17.468 293.086 17.468 285.872 24.682S278.658 43.592 285.872 50.806L311.693 76.627C317.083 82.017 325.823 82.017 331.215 76.627L361.369 46.473C365.627 42.214 372.526 42.185 376.748 46.408 380.97 50.63 380.94 57.529 376.682 61.787 376.682 61.787 359.071 78.956 356.338 81.69L313.346 121.518 306.288 114.461C299.012 107.184 287.16 106.515 279.551 113.441 271.426 120.835 271.204 133.425 278.882 141.103L286.321 148.542 273.71 161.154 266.652 154.096C259.376 146.82 247.523 146.15 239.915 153.076 231.79 160.47 231.567 173.06 239.245 180.738L246.685 188.178 233.172 201.69 226.115 194.632C218.838 187.356 206.986 186.687 199.377 193.612 191.253 201.007 191.03 213.596 198.708 221.274L206.148 228.714 193.536 241.325 186.478 234.268C179.202 226.991 167.35 226.322 159.741 233.248 151.616 240.642 151.394 253.232 159.072 260.91L166.511 268.349 110.021 324.839C67.01 367.85 67.212 437.757 110.178 480.797 153.215 523.797 222.838 523.704 265.862 480.681L267.731 478.812C292.336 454.207 324.277 439.144 357.993 435.086 363.655 438.001 368.625 440.594 373.151 442.985 365.406 397.234 353.998 330.122 347.551 292.119 343.483 293.328 339.402 294.562 335.405 295.927 334.303 296.175 333.143 296.381 331.979 296.615L332.034 297.015C280.098 315.302 232.756 344.967 193.578 384.001 185.745 391.806 172.676 392.208 164.966 384.283 157.451 376.557 157.474 364.241 165.118 356.595L398.07 103.34 407.316 92.418C428.434 71.294 428.443 36.936 407.334 15.827Z"/><path d="M434.805 431.899L411.478 295.095C409.339 282.636 397.064 274.042 385.26 276.837L385.263 276.834C381.262 277.232 377.921 278.804 374.122 280.764 374.841 282.575 375.301 284.39 375.64 286.364L405.088 457.63C409.047 458.688 412.971 458.376 416.219 458.022L416.271 458.073C428.636 456.028 436.943 444.358 434.805 431.899Z"/></svg>
